X:1
T: Ah! Belinda
N:
C:
S: Play  3  times
A:
O:
R:
M:4/4
K:C
I:speed 200
%W: A1
% voice 1 (1 lines, 39 notes)
K:C
M:4/4
L:1/16
e4 e2 f2 d4 g4 |c4 c2 d2 B4 B4 |c4 G4 A2 B2 c4 |c6 B2 c8 |e4 e2 f2 d4 g4 |c4 c2 d2 B4 B4 |c2 B2 c2 d2 e2 d2 c2 B2 |A6 G2 G8 |
%W: A2
% voice 1 (1 lines, 39 notes)
e4 e2 f2 d4 g4 |c4 c2 d2 B4 B4 |c4 G4 A2 B2 c4 |c6 B2 c8 |e4 e2 f2 d4 g4 |c4 c2 d2 B4 B4 |c2 B2 c2 d2 e2 d2 c2 B2 |A6 G2 G8 |
%W: B1
% voice 1 (1 lines, 44 notes)
c4 d2 e2 d4 d2 e2 |f2 e2 d2 c2 d4 G4 |d4 d2 e2 f4 g2 f2 |e6 d2 d8 |c4 c2 d2 e4 c4 |f2 g2 f2 e2 d4 e2 f2 |g2 e2 f2 g2 a2 g2 f2 e2 |d6 c2 c8 |
%W: B2
% voice 1 (1 lines, 44 notes)
c4 d2 e2 d4 d2 e2 |f2 e2 d2 c2 d4 G4 |d4 d2 e2 f4 g2 f2 |e6 d2 d8 |c4 c2 d2 e4 c4 |f2 g2 f2 e2 d4 e2 f2 |g2 e2 f2 g2 a2 g2 f2 e2 |d6 c2 c8 ||
